X: 1
T: One Bottle More
M: 4/4
L: 1/8
R: barndance
K: Emin
|: GE | DB D2 DB D2 | DB D2 D4 | ED E2 ED E2 | EDEF G2 G2 |
B2 B2 dB d2 | edef g2 g/f/e | d2 gd BABA | G2 E2 E2 :|
|: zB | dB d2 dB d2 | dB d2 ef g2 | dB d2 dBdg | gd B2 A3 g | 
gf g2 ed e2 | BABA G2 Bc | d2 gd BABA | G2 E2 E2 :|
